X:140
T:The Wicklow
M:C
K:D
L:1/8
ABAF DEFG|AFAB =c2 A^c|dcde fdAF|DGGF G2 FG|
ABAF DEFG|AFAB =c2 A^c|dcde fdAG|1 F2 D2 D2 FG :|2 F2 D2 D2 de |
f2 fd edcA|dggf g2 fg|abag agec|dcAF G2 FG|
ABAF DEFG|AGAB =c2 A^c|dcde fdAG|F2 D2 D4 :|
